X:1
T:The Bold Trellitee
M:4/4
L:1/8
K:F
 D2 DD F2 DD| F2 GG A2 FG| A2 ABc-A G2| A8| A2 AA c2 AG| A2 AA c3 c|\
 F2 EE D2 EE| F2 GG E2 FG| AB AGA-D DD| D2 D2 F2 FG| AB AA F2 F2| D8|\
